src/assets/img/payment/payment_method_apple_pay.svg

<svg width="27" height="20" viewBox="0 0 27 20" fill="none" xmlns="http://www.w3.org/2000/svg">
<g clip-path="url(#clip0_4902_30888)">
<path d="M24.5035 0.5C25.0459 0.5 25.5416 0.730838 25.9059 1.11401C26.2708 1.49788 26.5 2.03156 26.5 2.62548V17.3745C26.5 17.9676 26.2703 18.5003 25.9054 18.884C25.5396 19.2689 25.0428 19.5 24.5035 19.5H2.49649C1.95412 19.5 1.45841 19.2692 1.09412 18.886C0.729163 18.5021 0.5 17.9684 0.5 17.3745V2.62548C0.5 2.03237 0.729713 1.49973 1.09458 1.11595C1.46044 0.731137 1.95718 0.5 2.49649 0.5H24.5035Z" fill="white" stroke="#F3F3F3"/>
<path d="M7.37938 7.63356C7.16845 7.88689 6.83095 8.0867 6.49345 8.05816C6.45126 7.71563 6.61649 7.35169 6.80985 7.1269C7.02079 6.86644 7.38993 6.6809 7.68876 6.66663C7.72392 7.02343 7.58681 7.3731 7.37938 7.63356ZM7.68524 8.12595C7.19657 8.09741 6.77821 8.40782 6.54618 8.40782C6.31063 8.40782 5.95556 8.14022 5.56884 8.14736C5.0661 8.15449 4.59852 8.4435 4.34188 8.90378C3.81454 9.82433 4.20477 11.1873 4.71454 11.9366C4.96415 12.3077 5.26298 12.7144 5.65673 12.7002C6.02938 12.6859 6.17704 12.454 6.62704 12.454C7.08056 12.454 7.21063 12.7002 7.60438 12.693C8.0122 12.6859 8.26884 12.322 8.51845 11.9509C8.80321 11.5299 8.91923 11.1195 8.92626 11.0981C8.91923 11.091 8.13876 10.7877 8.13173 9.87428C8.1247 9.11073 8.74696 8.74679 8.77509 8.72538C8.42352 8.19731 7.87509 8.14022 7.68524 8.12595ZM10.5083 7.09122V12.6538H11.3591V10.752H12.5368C13.6126 10.752 14.3684 10.0027 14.3684 8.91805C14.3684 7.83337 13.6267 7.09122 12.5649 7.09122H10.5083ZM11.3591 7.8191H12.3399C13.0782 7.8191 13.5001 8.21872 13.5001 8.92162C13.5001 9.62452 13.0782 10.0277 12.3364 10.0277H11.3591V7.8191ZM15.9224 12.6966C16.4567 12.6966 16.9524 12.4219 17.1774 11.9866H17.195V12.6538H17.9825V9.88499C17.9825 9.08218 17.3497 8.56482 16.3759 8.56482C15.4724 8.56482 14.8044 9.08932 14.7798 9.81006H15.5462C15.6095 9.46753 15.9224 9.24274 16.3513 9.24274C16.8716 9.24274 17.1634 9.48894 17.1634 9.94208V10.2489L16.1017 10.3132C15.1138 10.3738 14.5794 10.7841 14.5794 11.4977C14.5794 12.2185 15.1313 12.6966 15.9224 12.6966ZM16.1509 12.0365C15.6974 12.0365 15.4091 11.8153 15.4091 11.4763C15.4091 11.1267 15.6868 10.9233 16.2177 10.8912L17.1634 10.8305V11.1445C17.1634 11.6654 16.7274 12.0365 16.1509 12.0365ZM19.0337 14.1666C19.8634 14.1666 20.2536 13.8455 20.5946 12.8714L22.0888 8.61834H21.2239L20.222 11.9045H20.2044L19.2024 8.61834H18.313L19.7544 12.6681L19.677 12.9142C19.547 13.3317 19.336 13.4923 18.9599 13.4923C18.8931 13.4923 18.763 13.4851 18.7102 13.478V14.1452C18.7595 14.1595 18.9704 14.1666 19.0337 14.1666Z" fill="black"/>
</g>
<defs>
<clipPath id="clip0_4902_30888">
<rect width="27" height="20" fill="white"/>
</clipPath>
</defs>
</svg>

<svg width="27" height="20" fill="none" xmlns="http://www.w3.org/2000/svg"><g clip-path="url(#a)"><path d="M24.503.5c.543 0 1.039.23 1.403.614.365.384.594.918.594 1.511v14.75c0 .593-.23 1.125-.595 1.509a1.93 1.93 0 0 1-1.402.616H2.496c-.542 0-1.038-.23-1.402-.614A2.188 2.188 0 0 1 .5 17.375V2.625c0-.593.23-1.125.595-1.509A1.93 1.93 0 0 1 2.496.5h22.007Z" fill="#fff" stroke="#F3F3F3"/><path d="M7.38 7.634c-.212.253-.55.453-.887.424-.042-.342.123-.706.317-.931.21-.26.58-.446.879-.46.035.356-.102.706-.31.967Zm.305.492c-.488-.029-.907.282-1.139.282-.235 0-.59-.268-.977-.26-.503.006-.97.296-1.227.756-.527.92-.137 2.283.373 3.033.25.37.548.777.942.763.372-.014.52-.246.97-.246.454 0 .584.246.977.239.408-.007.665-.371.914-.742.285-.421.401-.832.408-.853-.007-.007-.787-.31-.794-1.224-.007-.763.615-1.127.643-1.149-.351-.528-.9-.585-1.09-.6Zm2.823-1.035v5.563h.851v-1.902h1.178c1.076 0 1.831-.75 1.831-1.834 0-1.085-.741-1.827-1.803-1.827h-2.057Zm.851.728h.98c.74 0 1.161.4 1.161 1.103s-.422 1.106-1.164 1.106h-.977V7.819Zm4.563 4.878c.535 0 1.03-.275 1.255-.71h.018v.667h.788V9.885c0-.803-.633-1.32-1.607-1.32-.904 0-1.572.524-1.596 1.245h.766c.064-.342.376-.567.805-.567.52 0 .812.246.812.7v.306l-1.061.064c-.988.06-1.523.471-1.523 1.185 0 .72.552 1.199 1.343 1.199Zm.229-.66c-.454 0-.742-.222-.742-.56 0-.35.278-.554.809-.586l.945-.06v.314c0 .52-.436.892-1.012.892Zm2.883 2.13c.83 0 1.22-.322 1.56-1.296l1.495-4.253h-.865l-1.002 3.287h-.018l-1.002-3.287h-.889l1.441 4.05-.077.246c-.13.418-.341.578-.717.578a2.64 2.64 0 0 1-.25-.014v.667c.05.014.26.022.324.022Z" fill="#000"/></g><defs><clipPath id="a"><path fill="#fff" d="M0 0h27v20H0z"/></clipPath></defs></svg>
